ir/label-outline.svg

<svg stroke-width="1.5" viewBox="0 0 24 24" fill="none" xmlns="http://www.w3.org/2000/svg" height="1em" width="1em">
  <path d="M3 17.4V6.6C3 6.26863 3.26863 6 3.6 6H16.6789C16.8795 6 17.0668 6.10026 17.1781 6.26718L20.7781 11.6672C20.9125 11.8687 20.9125 12.1313 20.7781 12.3328L17.1781 17.7328C17.0668 17.8997 16.8795 18 16.6789 18H3.6C3.26863 18 3 17.7314 3 17.4Z" stroke="currentColor" stroke-width="1.5"/>
</svg>

<svg stroke-width="1.5" viewBox="0 0 24 24" fill="none" xmlns="http://www.w3.org/2000/svg" height="1em" width="1em">
  <path d="M3 17.4V6.6a.6.6 0 0 1 .6-.6h13.079c.2 0 .388.1.5.267l3.6 5.4a.6.6 0 0 1 0 .666l-3.6 5.4a.6.6 0 0 1-.5.267H3.6a.6.6 0 0 1-.6-.6Z" stroke="currentColor"/>
</svg>
